images/paw.svg

<svg width="17" height="17" viewBox="0 0 17 17" fill="none" xmlns="http://www.w3.org/2000/svg">
<path d="M13.47 10.3934C14.5318 10.7921 15.7695 10.0008 16.2345 8.62072C16.6994 7.24061 16.2093 5.79916 15.1475 5.39432C14.0858 4.99562 12.848 5.78689 12.3831 7.167C11.9245 8.55325 12.4083 9.9947 13.47 10.3934Z" fill="#F2AB00"/>
<path d="M10.6051 5.63968C11.6983 5.79302 12.7224 4.6644 12.8857 3.11254C13.0491 1.56068 12.3014 0.17443 11.202 0.0149505C10.1088 -0.138395 9.0847 0.99023 8.92135 2.54209C8.75172 4.10008 9.50565 5.48633 10.6051 5.63968Z" fill="#F2AB00"/>
<path d="M0.175736 8.62072C0.640662 10.0008 1.87836 10.7982 2.94015 10.3934C4.00194 9.9947 4.492 8.54712 4.02707 7.167C3.56215 5.78689 2.32444 4.98949 1.26265 5.39432C0.200867 5.79916 -0.289189 7.24061 0.175736 8.62072Z" fill="#F2AB00"/>
<path d="M3.52445 3.11254C3.69409 4.6644 4.71818 5.79916 5.81138 5.63968C6.90458 5.48633 7.65852 4.10008 7.49516 2.54209C7.33181 0.990231 6.30772 -0.144529 5.21452 0.0149505C4.11503 0.17443 3.3611 1.56068 3.52445 3.11254Z" fill="#F2AB00"/>
<path d="M2.88361 14.8282C3.55586 16.1408 5.20823 16.7481 6.38311 16.2205C6.57788 16.1285 6.61557 16.1408 7.35694 15.7912C7.59569 15.6808 7.847 15.601 8.20512 15.601C8.5758 15.601 8.82083 15.6808 9.05329 15.7912C9.79466 16.1408 9.82607 16.1285 10.0271 16.2205C11.202 16.7419 12.8543 16.1347 13.5266 14.8282C14.5444 12.8408 12.402 11.3687 11.9685 10.9516C11.0637 10.0744 10.9758 9.18503 10.8878 8.78633C10.5297 7.22834 9.26691 6.63336 8.20512 6.60269C7.14333 6.63949 5.88049 7.22834 5.52237 8.78633C5.43441 9.18503 5.34645 10.0683 4.44173 10.9516C4.00822 11.3748 1.8658 12.8408 2.88361 14.8282Z" fill="#F2AB00"/>
</svg>

<svg width="17" height="17" fill="none" xmlns="http://www.w3.org/2000/svg"><path d="M13.47 10.393c1.062.4 2.3-.392 2.764-1.772.465-1.38-.025-2.822-1.087-3.227-1.061-.398-2.299.393-2.764 1.773-.458 1.386.025 2.828 1.087 3.226zM10.605 5.64c1.093.153 2.117-.976 2.28-2.527.164-1.552-.584-2.939-1.683-3.098-1.093-.153-2.117.975-2.28 2.527-.17 1.558.584 2.944 1.683 3.098zM.176 8.62C.64 10 1.878 10.799 2.94 10.394c1.062-.398 1.552-1.846 1.087-3.226-.465-1.38-1.703-2.178-2.764-1.773C.2 5.8-.29 7.241.176 8.621zM3.524 3.113c.17 1.551 1.194 2.686 2.287 2.527C6.905 5.486 7.66 4.1 7.495 2.542 7.332.99 6.308-.145 5.215.015c-1.1.16-1.854 1.546-1.69 3.098zM2.884 14.828c.672 1.313 2.324 1.92 3.5 1.393.194-.093.232-.08.973-.43.239-.11.49-.19.848-.19.37 0 .616.08.848.19.742.35.773.337.974.43 1.175.52 2.827-.086 3.5-1.393 1.017-1.987-1.125-3.46-1.558-3.876-.905-.878-.993-1.767-1.081-2.166-.358-1.558-1.621-2.153-2.683-2.183-1.062.036-2.325.625-2.683 2.183-.088.399-.176 1.282-1.08 2.166-.434.423-2.576 1.889-1.558 3.876z" fill="#F2AB00"/></svg>
